X: 14858
T: Garrett Barry's
R: reel
M: 4/4
K: Adorian
|:G3B d2 (3Bcd|edBe dBAB|G3B d2BG|A3G EGDE|
G3B d2 (3Bcd|edBA GABd|edcB cdef|gedB ADBA:|
|:g3b afge|dBAB GABd|g2af gedg|eaag a2ga|
b2gb abge|dBBA GABd|edcB cdef|gedB ADBA:|

